packages/kaspersky-hexa-ui-icons/src/iconsSVGs/48/NetworkAttack.svg

<svg width="48" height="48" viewBox="0 0 48 48" fill="none" xmlns="http://www.w3.org/2000/svg">
<path fill-rule="evenodd" clip-rule="evenodd" d="M7.99529 26H18.9953V30H16.9953V32H30.9953V30H28.9953V26H39.9953V0H7.99529V26ZM26.9953 30H20.9953V26H26.9953V30ZM9.99529 24V21H37.9953V24H9.99529ZM37.9953 2V19H9.99529V2H37.9953ZM1.91529 43.62C2.12242 44.1281 1.88146 44.7082 1.37529 44.92C1.25661 44.976 1.12647 45.0034 0.99529 45C0.864113 45.0034 0.733969 44.976 0.61529 44.92C0.491705 44.8694 0.379498 44.7946 0.28529 44.7C0.00574255 44.4143 -0.0768385 43.9896 0.0752899 43.62C0.122884 43.4972 0.194249 43.3851 0.28529 43.29C0.519876 43.0454 0.862412 42.9362 1.19529 43C1.25794 43.0109 1.3186 43.0312 1.37529 43.06C1.43672 43.08 1.49424 43.1104 1.54529 43.15L1.70529 43.27C1.79861 43.371 1.8701 43.4901 1.91529 43.62ZM17.9953 44C17.9953 44.5523 17.5476 45 16.9953 45C16.443 45 15.9953 44.5523 15.9953 44C15.9953 43.4477 16.443 43 16.9953 43C17.5476 43 17.9953 43.4477 17.9953 44ZM13.9953 44C13.9953 44.5523 13.5476 45 12.9953 45C12.443 45 11.9953 44.5523 11.9953 44C11.9953 43.4477 12.443 43 12.9953 43C13.5476 43 13.9953 43.4477 13.9953 44ZM9.99529 44C9.99529 44.5523 9.54757 45 8.99529 45C8.443 45 7.99529 44.5523 7.99529 44C7.99529 43.4477 8.443 43 8.99529 43C9.54757 43 9.99529 43.4477 9.99529 44ZM5.99529 44C5.99529 44.5523 5.54757 45 4.99529 45C4.44301 45 3.99529 44.5523 3.99529 44C3.99529 43.4477 4.44301 43 4.99529 43C5.54757 43 5.99529 43.4477 5.99529 44ZM31.9953 44C31.9953 44.5523 31.5476 45 30.9953 45C30.443 45 29.9953 44.5523 29.9953 44C29.9953 43.4477 30.443 43 30.9953 43C31.5476 43 31.9953 43.4477 31.9953 44ZM39.9953 44C39.9953 44.5523 39.5476 45 38.9953 45C38.443 45 37.9953 44.5523 37.9953 44C37.9953 43.4477 38.443 43 38.9953 43C39.5476 43 39.9953 43.4477 39.9953 44ZM35.9953 44C35.9953 44.5523 35.5476 45 34.9953 45C34.443 45 33.9953 44.5523 33.9953 44C33.9953 43.4477 34.443 43 34.9953 43C35.5476 43 35.9953 43.4477 35.9953 44ZM43.9953 44C43.9953 44.5523 43.5476 45 42.9953 45C42.443 45 41.9953 44.5523 41.9953 44C41.9953 43.4477 42.443 43 42.9953 43C43.5476 43 43.9953 43.4477 43.9953 44ZM47.9953 44C47.9937 44.1307 47.9665 44.2598 47.9153 44.38C47.8646 44.5012 47.7936 44.6128 47.7053 44.71C47.4177 44.9937 46.9877 45.0766 46.6153 44.92C46.3641 44.8291 46.1662 44.6312 46.0753 44.38C45.9683 44.138 45.9683 43.862 46.0753 43.62C46.1211 43.4964 46.1927 43.3839 46.2853 43.29C46.4731 43.1007 46.7287 42.9942 46.9953 42.9942C47.2619 42.9942 47.5175 43.1007 47.7053 43.29C47.7979 43.3839 47.8695 43.4964 47.9153 43.62C47.9665 43.7402 47.9937 43.8693 47.9953 44ZM22.9953 34C22.9953 33.4477 23.443 33 23.9953 33C24.5476 33 24.9953 33.4477 24.9953 34C24.9953 34.5523 24.5476 35 23.9953 35C23.443 35 22.9953 34.5523 22.9953 34ZM22.9953 38C22.9953 37.4477 23.443 37 23.9953 37C24.5476 37 24.9953 37.4477 24.9953 38C24.9953 38.5523 24.5476 39 23.9953 39C23.443 39 22.9953 38.5523 22.9953 38ZM23.9953 40C21.7862 40 19.9953 41.7909 19.9953 44C19.9953 46.2091 21.7862 48 23.9953 48C26.2044 48 27.9953 46.2091 27.9953 44C27.9953 41.7909 26.2044 40 23.9953 40ZM23.9953 46C22.8907 46 21.9953 45.1046 21.9953 44C21.9953 42.8954 22.8907 42 23.9953 42C25.0999 42 25.9953 42.8954 25.9953 44C25.9953 45.1046 25.0999 46 23.9953 46ZM21.9953 12H17.7753L24.9953 3.87V9H29.2153L21.9953 17.13V12Z"  fill="currentColor"/>
</svg>

<svg xmlns="http://www.w3.org/2000/svg" width="48" height="48" fill="none" viewBox="0 0 48 48"><path fill="currentColor" fill-rule="evenodd" d="M7.9953 26h11v4h-2v2h14v-2h-2v-4h11V0h-32zm19 4h-6v-4h6zm-17-6v-3h28v3zm28-22v17h-28V2zm-36.08 41.62c.2071.5081-.0338 1.0882-.54 1.3a.84.84 0 0 1-.38.08.84.84 0 0 1-.38-.08 1 1 0 0 1-.33-.22 1 1 0 0 1-.21-1.08 1 1 0 0 1 .21-.33 1 1 0 0 1 .91-.29.64.64 0 0 1 .18.06.56.56 0 0 1 .17.09l.16.12a1 1 0 0 1 .21.35m16.08.38c0 .5523-.4477 1-1 1s-1-.4477-1-1 .4477-1 1-1 1 .4477 1 1m-4 0c0 .5523-.4477 1-1 1s-1-.4477-1-1 .4477-1 1-1 1 .4477 1 1m-4 0c0 .5523-.4477 1-1 1s-1-.4477-1-1 .4477-1 1-1 1 .4477 1 1m-4 0c0 .5523-.4477 1-1 1s-1-.4477-1-1 .4477-1 1-1 1 .4477 1 1m26 0c0 .5523-.4477 1-1 1s-1-.4477-1-1 .4477-1 1-1 1 .4477 1 1m8 0c0 .5523-.4477 1-1 1s-1-.4477-1-1 .4477-1 1-1 1 .4477 1 1m-4 0c0 .5523-.4477 1-1 1s-1-.4477-1-1 .4477-1 1-1 1 .4477 1 1m8 0c0 .5523-.4477 1-1 1s-1-.4477-1-1 .4477-1 1-1 1 .4477 1 1m4 0a1 1 0 0 1-.08.38 1.15 1.15 0 0 1-.21.33 1 1 0 0 1-1.09.21.9.9 0 0 1-.54-.54.94.94 0 0 1 0-.76.93.93 0 0 1 .21-.33 1 1 0 0 1 1.42 0 .93.93 0 0 1 .21.33 1 1 0 0 1 .08.38m-25-10c0-.5523.4477-1 1-1s1 .4477 1 1-.4477 1-1 1-1-.4477-1-1m0 4c0-.5523.4477-1 1-1s1 .4477 1 1-.4477 1-1 1-1-.4477-1-1m1 2c-2.2091 0-4 1.7909-4 4s1.7909 4 4 4 4-1.7909 4-4-1.7909-4-4-4m0 6c-1.1046 0-2-.8954-2-2s.8954-2 2-2 2 .8954 2 2-.8954 2-2 2m-2-34h-4.22l7.22-8.13V9h4.22l-7.22 8.13z" clip-rule="evenodd"/></svg>
